discard/swiss.svg

<?xml version="1.0" encoding="iso-8859-1"?>
<!-- Generator: Adobe Illustrator 10, SVG Export Plug-In . SVG Version: 3.0.0 Build 76)  -->
<!DOCTYPE svg PUBLIC "-//W3C//DTD SVG 1.0//EN"    "http://www.w3.org/TR/2001/REC-SVG-20010904/DTD/svg10.dtd" [
	<!ENTITY ns_flows "http://ns.adobe.com/Flows/1.0/">
	<!ENTITY ns_svg "http://www.w3.org/2000/svg">
	<!ENTITY ns_xlink "http://www.w3.org/1999/xlink">
]>
<svg  xmlns="&ns_svg;" xmlns:xlink="&ns_xlink;" xmlns:a="http://ns.adobe.com/AdobeSVGViewerExtensions/3.0/"
	 width="622.885" height="755.723" viewBox="0 0 622.885 755.723"
	 style="overflow:visible;enable-background:new 0 0 622.885 755.723" xml:space="preserve">
	<style type="text/css">
	<![CDATA[
		@font-face{font-family:'Times-Roman';src:url(C12B7E81.cef)}
	]]>
	</style>
	<g id="Layer_1">
		<text transform="matrix(1 0 0 1 0 692.7598)"><tspan x="0" y="0" style="font-family:'Times-Roman'; font-size:12;">&quot;Swiss&quot;</tspan><tspan x="0" y="14.5" style="font-family:'Times-Roman'; font-size:12;">Copyright </tspan><tspan x="51.668" y="14.5" style="font-family:'Times-Roman'; font-size:12;">&#xA9;</tspan><tspan x="60.785" y="14.5" style="font-family:'Times-Roman'; font-size:12;"> 2000 Rob Myers http://www.robmyers.org/ .</tspan><tspan x="0" y="29" style="font-family:'Times-Roman'; font-size:12;">This work is licensed under the Creative Commons Attribution-ShareAlike License.</tspan><tspan x="0" y="43.5" style="font-family:'Times-Roman'; font-size:12;">To view a copy of this license, visit http://creativecommons.org/licenses/by-sa/1.0/ </tspan><tspan x="0" y="58" style="font-family:'Times-Roman'; font-size:12;">or send a letter to Creative Commons, 559 Nathan Abbott Way, Stanford, California 94305, USA.</tspan></text>
		<g>
			<g>
				<path style="stroke:#000000;stroke-width:7.992;" d="M343.968,622.764c-14.616-28.008-46.08-54.359-86.832-69.552
					c-41.472-14.76-83.448-14.76-112.968-2.304l-0.72-323.424c37.512,23.832,74.808,29.592,97.056,11.088
					c34.488-27.576,22.393-102.744-28.944-167.112c-16.128-20.16-34.056-36.792-52.2-49.248l219.816-0.504
					c-4.536,4.104-8.928,8.496-13.176,13.176c-48.744,52.632-58.176,123.12-21.096,157.68c14.976,13.896,36,19.296,58.896,16.992
					l0.216,79.272c-34.344-7.704-74.951,0.648-109.296,25.56c-54.72,41.904-72.432,112.32-38.952,158.832
					c31.68,41.4,95.184,47.809,148.68,17.496l0.288,131.904L343.968,622.764z"/>
				<path style="stroke:#000000;stroke-width:7.992;" d="M170.376,151.668c70.128-28.944,153.144-74.808,244.728-65.376
					c86.257,8.928,148.608,67.968,200.881,109.512c-3.168,7.272-9.072,14.544-16.2,21.24c-7.632,7.128-15.696,13.68-19.729,20.952
					c-41.76-44.352-95.903-104.472-175.319-110.664c-84.456-6.624-159.192,39.816-220.752,70.992
					c-2.16-7.776-4.32-15.768-6.264-23.256C175.632,167.004,171.96,159.372,170.376,151.668z"/>
				<path style="stroke:#000000;stroke-width:7.992;" d="M372.84,406.908c-32.472,68.544-63.072,158.544-137.16,213.191
					c-69.768,51.553-155.592,49.824-222.192,54.288c-2.52-7.56-3.096-16.848-2.304-26.64c0.864-10.368,2.448-20.736,0.576-28.728
					c60.624,4.607,141.12,12.672,203.976-36.217c66.888-52.056,91.081-136.728,115.632-201.312
					c6.84,4.32,13.824,8.784,20.304,13.032C358.584,399.132,366.432,402.229,372.84,406.908z"/>
			</g>
			<g>
				<path style="fill:#D9F1E8;stroke:#38A0A6;stroke-width:7.992;" d="M352.32,588.42c-14.185-27.216-44.784-52.92-84.456-67.824
					c-40.32-14.399-81.144-14.472-109.872-2.447V203.58c36.432,23.256,72.72,29.016,94.464,11.016
					c33.552-26.712,21.96-99.864-27.864-162.576c-15.624-19.656-33.048-35.856-50.688-48.024h213.984
					c-4.392,3.96-8.712,8.208-12.888,12.744c-47.592,51.12-56.88,119.592-20.88,153.288c14.544,13.608,34.992,18.864,57.312,16.632
					v77.112c-33.336-7.56-72.936,0.504-106.416,24.696c-53.352,40.536-70.704,109.08-38.304,154.368
					c30.816,40.32,92.664,46.656,144.72,17.28V588.42H352.32z"/>
				<path style="fill:#FEE8B2;stroke:#FEC463;stroke-width:7.992;" d="M184.344,129.924C252.6,101.916,333.6,57.492,422.736,66.852
					C506.688,75.708,567.24,133.308,618,173.772c-3.096,7.128-8.856,14.184-15.84,20.664c-7.416,6.84-15.264,13.248-19.225,20.304
					c-40.535-43.2-93.096-101.736-170.352-108c-82.224-6.552-155.088,38.376-215.136,68.544c-2.088-7.56-4.176-15.264-5.976-22.608
					C189.456,144.828,185.856,137.412,184.344,129.924z"/>
				<path style="fill:#FEE8B2;stroke:#FEC463;stroke-width:7.992;" d="M380.832,378.54c-31.68,66.672-61.704,154.08-133.92,207.072
					c-68.04,49.968-151.56,48.096-216.432,52.344c-2.448-7.344-2.952-16.488-2.16-25.992c0.864-10.08,2.376-20.088,0.576-27.936
					c59.04,4.68,137.376,12.6,198.72-34.776c65.16-50.399,88.848-132.696,112.968-195.479c6.624,4.176,13.392,8.567,19.729,12.743
					C367.008,370.98,374.64,374.004,380.832,378.54z"/>
			</g>
		</g>
	</g>
</svg>

<?xml version="1.0" encoding="UTF-8" standalone="no"?>
<!-- Generator: Adobe Illustrator 10, SVG Export Plug-In . SVG Version: 3.0.0 Build 76)  -->
<svg
   xmlns:dc="http://purl.org/dc/elements/1.1/"
   xmlns:cc="http://creativecommons.org/ns#"
   xmlns:rdf="http://www.w3.org/1999/02/22-rdf-syntax-ns#"
   xmlns:svg="http://www.w3.org/2000/svg"
   xmlns="http://www.w3.org/2000/svg"
   xmlns:sodipodi="http://sodipodi.sourceforge.net/DTD/sodipodi-0.dtd"
   xmlns:inkscape="http://www.inkscape.org/namespaces/inkscape"
   width="615.1391"
   height="678.383"
   viewBox="0 0 622.885 755.723"
   style="overflow:visible"
   xml:space="preserve"
   id="svg2791"
   sodipodi:version="0.32"
   inkscape:version="0.46"
   sodipodi:docname="swiss.svg"
   inkscape:output_extension="org.inkscape.output.svg.inkscape"
   version="1.0"><metadata
   id="metadata2833"><rdf:RDF><cc:Work
       rdf:about=""><dc:format>image/svg+xml</dc:format><dc:type
         rdf:resource="http://purl.org/dc/dcmitype/StillImage" /></cc:Work></rdf:RDF></metadata><defs
   id="defs2831"><inkscape:perspective
   sodipodi:type="inkscape:persp3d"
   inkscape:vp_x="0 : 377.86151 : 1"
   inkscape:vp_y="0 : 1000 : 0"
   inkscape:vp_z="622.88501 : 377.86151 : 1"
   inkscape:persp3d-origin="311.4425 : 251.90767 : 1"
   id="perspective2835" />
		
		
	</defs><sodipodi:namedview
   inkscape:window-height="670"
   inkscape:window-width="640"
   inkscape:pageshadow="2"
   inkscape:pageopacity="0.0"
   guidetolerance="10.0"
   gridtolerance="10.0"
   objecttolerance="10.0"
   borderopacity="1.0"
   bordercolor="#666666"
   pagecolor="#ffffff"
   id="base"
   showgrid="false"
   inkscape:zoom="0.61133509"
   inkscape:cx="311.4425"
   inkscape:cy="377.86151"
   inkscape:window-x="0"
   inkscape:window-y="64"
   inkscape:current-layer="svg2791" />
	<style
   type="text/css"
   id="style2793">
	
		@font-face{font-family:'Times-Roman';src:url(C12B7E81.cef)}
	
	</style>
	
<g
   transform="matrix(1.1140064,0,0,1.1140064,-38.830618,-3.7085695e-6)"
   style="overflow:visible"
   id="g2812">
			<g
   id="g2814">
				<path
   id="path2816"
   d="M 343.968,622.764 C 329.352,594.756 297.888,568.405 257.136,553.212 C 215.664,538.452 173.688,538.452 144.168,550.908 L 143.448,227.484 C 180.96,251.316 218.256,257.076 240.504,238.572 C 274.992,210.996 262.897,135.828 211.56,71.46 C 195.432,51.3 177.504,34.668 159.36,22.212 L 379.176,21.708 C 374.64,25.812 370.248,30.204 366,34.884 C 317.256,87.516 307.824,158.004 344.904,192.564 C 359.88,206.46 380.904,211.86 403.8,209.556 L 404.016,288.828 C 369.672,281.124 329.065,289.476 294.72,314.388 C 240,356.292 222.288,426.708 255.768,473.22 C 287.448,514.62 350.952,521.029 404.448,490.716 L 404.736,622.62 L 343.968,622.764 z"
   style="stroke:#000000;stroke-width:7.9920001" />
				<path
   id="path2818"
   d="M 170.376,151.668 C 240.504,122.724 323.52,76.86 415.104,86.292 C 501.361,95.22 563.712,154.26 615.985,195.804 C 612.817,203.076 606.913,210.348 599.785,217.044 C 592.153,224.172 584.089,230.724 580.056,237.996 C 538.296,193.644 484.153,133.524 404.737,127.332 C 320.281,120.708 245.545,167.148 183.985,198.324 C 181.825,190.548 179.665,182.556 177.721,175.068 C 175.632,167.004 171.96,159.372 170.376,151.668 z"
   style="stroke:#000000;stroke-width:7.9920001" />
				<path
   id="path2820"
   d="M 372.84,406.908 C 340.368,475.452 309.768,565.452 235.68,620.099 C 165.912,671.652 80.088,669.923 13.488,674.387 C 10.968,666.827 10.392,657.539 11.184,647.747 C 12.048,637.379 13.632,627.011 11.76,619.019 C 72.384,623.626 152.88,631.691 215.736,582.802 C 282.624,530.746 306.817,446.074 331.368,381.49 C 338.208,385.81 345.192,390.274 351.672,394.522 C 358.584,399.132 366.432,402.229 372.84,406.908 z"
   style="stroke:#000000;stroke-width:7.9920001" />
			</g>
			<g
   id="g2822">
				<path
   id="path2824"
   d="M 352.32,588.42 C 338.135,561.204 307.536,535.5 267.864,520.596 C 227.544,506.197 186.72,506.124 157.992,518.149 L 157.992,203.58 C 194.424,226.836 230.712,232.596 252.456,214.596 C 286.008,187.884 274.416,114.732 224.592,52.02 C 208.968,32.364 191.544,16.164 173.904,3.996 L 387.888,3.996 C 383.496,7.956 379.176,12.204 375,16.74 C 327.408,67.86 318.12,136.332 354.12,170.028 C 368.664,183.636 389.112,188.892 411.432,186.66 L 411.432,263.772 C 378.096,256.212 338.496,264.276 305.016,288.468 C 251.664,329.004 234.312,397.548 266.712,442.836 C 297.528,483.156 359.376,489.492 411.432,460.116 L 411.432,588.42 L 352.32,588.42 z"
   style="fill:#d9f1e8;stroke:#38a0a6;stroke-width:7.9920001" />
				<path
   id="path2826"
   d="M 184.344,129.924 C 252.6,101.916 333.6,57.492 422.736,66.852 C 506.688,75.708 567.24,133.308 618,173.772 C 614.904,180.9 609.144,187.956 602.16,194.436 C 594.744,201.276 586.896,207.684 582.935,214.74 C 542.4,171.54 489.839,113.004 412.583,106.74 C 330.359,100.188 257.495,145.116 197.447,175.284 C 195.359,167.724 193.271,160.02 191.471,152.676 C 189.456,144.828 185.856,137.412 184.344,129.924 z"
   style="fill:#fee8b2;stroke:#fec463;stroke-width:7.9920001" />
				<path
   id="path2828"
   d="M 380.832,378.54 C 349.152,445.212 319.128,532.62 246.912,585.612 C 178.872,635.58 95.352,633.708 30.48,637.956 C 28.032,630.612 27.528,621.468 28.32,611.964 C 29.184,601.884 30.696,591.876 28.896,584.028 C 87.936,588.708 166.272,596.628 227.616,549.252 C 292.776,498.853 316.464,416.556 340.584,353.773 C 347.208,357.949 353.976,362.34 360.313,366.516 C 367.008,370.98 374.64,374.004 380.832,378.54 z"
   style="fill:#fee8b2;stroke:#fec463;stroke-width:7.9920001" />
			</g>
		</g></svg>
